Simply-Blue-Circles/scalable/apps/distributor-logo-gentoo.svg

<svg xmlns="http://www.w3.org/2000/svg" width="48" height="48" viewBox="0 0 12.7 12.7"><path d="M6.34.07a6.29 6.29 0 0 0-6.29 6.3 6.29 6.29 0 0 0 6.3 6.28 6.29 6.29 0 0 0 6.28-6.29A6.29 6.29 0 0 0 6.34.07zM6.32 1l.01.01a5.4 5.4 0 0 1 5.4 5.4 5.4 5.4 0 0 1-5.4 5.41 5.4 5.4 0 0 1-5.41-5.4A5.4 5.4 0 0 1 6.32 1zm-.54 1l-.26.02c-.9.1-1.06.23-1.84.9-.27.21-.74.76-.84 1.4-.04.24.03.45.2.6.55.47 1.44.86 2.18 1.23.21.1.08.3-.24.62-.82.8-1.93 1.77-1.97 2.52-.02.34.1.82.51 1.06.48.28 1.42.1 2.05-.16.9-.37 2.1-1.2 3.02-2 .97-.85 1.86-1.92 1.9-2.09a.88.88 0 0 0-.1-.64c-.18-.36-.43-.62-.69-.92C9 3.8 8.26 3.12 7.4 2.61a3.32 3.32 0 0 0-1.62-.6zm.45 1.5c.2.02.44.09.69.22.66.33 1.37 1.22.08 1.73-.36.14-1.52-.34-1.52-1 0-.66.3-.96.75-.94z" fill="#2c89a0"/></svg>

<?xml version="1.0" encoding="UTF-8" standalone="no"?>
<svg
   xmlns:dc="http://purl.org/dc/elements/1.1/"
   xmlns:cc="http://creativecommons.org/ns#"
   xmlns:rdf="http://www.w3.org/1999/02/22-rdf-syntax-ns#"
   xmlns:svg="http://www.w3.org/2000/svg"
   xmlns="http://www.w3.org/2000/svg"
   xmlns:sodipodi="http://sodipodi.sourceforge.net/DTD/sodipodi-0.dtd"
   xmlns:inkscape="http://www.inkscape.org/namespaces/inkscape"
   width="48"
   height="48"
   viewBox="0 0 12.7 12.7"
   version="1.1"
   id="svg4"
   sodipodi:docname="distributor-logo-gentoo.svg"
   inkscape:version="0.92.4 (5da689c313, 2019-01-14)">
  <metadata
     id="metadata10">
    <rdf:RDF>
      <cc:Work
         rdf:about="">
        <dc:format>image/svg+xml</dc:format>
        <dc:type
           rdf:resource="http://purl.org/dc/dcmitype/StillImage" />
        <dc:title></dc:title>
      </cc:Work>
    </rdf:RDF>
  </metadata>
  <defs
     id="defs8" />
  <sodipodi:namedview
     pagecolor="#ffffff"
     bordercolor="#666666"
     borderopacity="1"
     objecttolerance="10"
     gridtolerance="10"
     guidetolerance="10"
     inkscape:pageopacity="0"
     inkscape:pageshadow="2"
     inkscape:window-width="1087"
     inkscape:window-height="480"
     id="namedview6"
     showgrid="false"
     inkscape:zoom="4.9166667"
     inkscape:cx="2.1355932"
     inkscape:cy="24"
     inkscape:window-x="0"
     inkscape:window-y="25"
     inkscape:window-maximized="0"
     inkscape:current-layer="svg4" />
  <path
     d="M 6.34,0.07 A 6.29,6.29 0 0 0 0.05,6.37 6.29,6.29 0 0 0 6.35,12.65 6.29,6.29 0 0 0 12.63,6.36 6.29,6.29 0 0 0 6.34,0.07 Z M 6.32,1 6.33,1.01 a 5.4,5.4 0 0 1 5.4,5.4 5.4,5.4 0 0 1 -5.4,5.41 A 5.4,5.4 0 0 1 0.92,6.42 5.4,5.4 0 0 1 6.32,1 Z M 5.78,2 5.52,2.02 C 4.62,2.12 4.46,2.25 3.68,2.92 3.41,3.13 2.94,3.68 2.84,4.32 2.8,4.56 2.87,4.77 3.04,4.92 3.59,5.39 4.48,5.78 5.22,6.15 5.43,6.25 5.3,6.45 4.98,6.77 4.16,7.57 3.05,8.54 3.01,9.29 c -0.02,0.34 0.1,0.82 0.51,1.06 0.48,0.28 1.42,0.1 2.05,-0.16 0.9,-0.37 2.1,-1.2 3.02,-2 0.97,-0.85 1.86,-1.92 1.9,-2.09 A 0.88,0.88 0 0 0 10.39,5.46 C 10.21,5.1 9.96,4.84 9.7,4.54 9,3.8 8.26,3.12 7.4,2.61 A 3.32,3.32 0 0 0 5.78,2.01 Z M 6.23,3.5 C 6.43,3.52 6.67,3.59 6.92,3.72 7.58,4.05 8.29,4.94 7,5.45 6.64,5.59 5.48,5.11 5.48,4.45 5.48,3.79 5.78,3.49 6.23,3.51 Z"
     id="path2"
     inkscape:connector-curvature="0"
     style="fill:#2c89a0" />
</svg>
